icons/uber.svg

<?xml version="1.0" encoding="UTF-8"?>
<svg width="24px" height="24px" viewBox="0 0 24 24" version="1.1" xmlns="http://www.w3.org/2000/svg" xmlns:xlink="http://www.w3.org/1999/xlink">
    <!-- Generator: Sketch 56.3 (81716) - https://sketch.com -->
    <title>uber</title>
    <desc>Created with Sketch.</desc>
    <g id="uber" stroke="none" stroke-width="1" fill="none" fill-rule="evenodd">
        <path d="M6.3800156,13.2399844 L6.3800156,9.03998436 L7.40001561,9.03998436 L7.40001561,15.84 L6.38999998,15.84 L6.38999998,15.21 C5.9300156,15.6800156 5.28998435,15.96 4.58001559,15.96 C3.11999996,15.96 2.00001558,14.9000156 2.00001558,13.2999844 L2.00001558,9.03998436 L2.99999996,9.03998436 L2.99999996,13.2399844 C2.99999996,14.3300156 3.74001559,15.0399844 4.70001559,15.0399844 C5.63999997,15.0399844 6.3800156,14.31 6.3800156,13.2399844 M9.14001561,9.03998436 L9.14001561,11.4999844 C9.36998436,11.2899844 9.65001562,11.1 9.95001562,10.9700156 C10.2500156,10.8500156 10.5800156,10.7799844 10.9100156,10.7799844 C12.3699844,10.7799844 13.5,11.94 13.5,13.3700156 C13.5,14.8000313 12.3699844,15.96 10.9100156,15.96 C10.5800156,15.96 10.2500156,15.8900156 9.95001562,15.7700156 C9.63998437,15.6399844 9.36998436,15.45 9.12998436,15.2199844 L9.12998436,15.84 L8.15999998,15.84 L8.15999998,9.03998436 L9.14001561,9.03998436 M12.5499844,13.3700156 C12.5499844,12.4100156 11.7699844,11.6499844 10.8399844,11.6499844 C9.89001562,11.6499844 9.12998436,12.4100156 9.12998436,13.3700156 C9.12998436,14.3199844 9.87998437,15.09 10.8399844,15.09 C11.7699844,15.09 12.5499844,14.3199844 12.5499844,13.3700156 M16.4600156,10.7900156 C17.9000156,10.7900156 18.9500157,11.8899844 18.9500157,13.3599844 L18.9500157,13.6899844 L14.91,13.6899844 C15.0399844,14.4999844 15.7100156,15.09 16.5500156,15.09 C17.13,15.09 17.61,14.8599844 18,14.3600156 L18.6999844,14.8899844 C18.2000157,15.5499844 17.46,15.9500156 16.5500156,15.9500156 C15.06,15.9500156 13.9100156,14.8400156 13.9100156,13.3599844 C13.9100156,11.97 15,10.7900156 16.4600156,10.7900156 M14.9199844,12.9099844 L17.9499844,12.9099844 C17.79,12.15 17.1800156,11.6499844 16.44,11.6499844 C15.7100156,11.6499844 15.0999844,12.15 14.9199844,12.9099844 M20.4999844,12.9999844 L20.4999844,15.84 L19.5,15.84 L19.5,10.89 L20.4699844,10.89 L20.4699844,11.4999844 C20.7099844,11.1 21.1100157,10.8500156 21.66,10.8500156 L21.9999844,10.8500156 L21.9999844,11.76 L21.5900157,11.76 C20.9499844,11.76 20.4999844,12.2600156 20.4999844,12.9999844" fill="#000000"></path>
    </g>
</svg>

<svg xmlns="http://www.w3.org/2000/svg" width="24" height="24" viewBox="0 0 24 24"><path fill-rule="evenodd" d="M6.38 13.24v-4.2H7.4v6.8H6.39v-.63c-.46.47-1.1.75-1.81.75C3.12 15.96 2 14.9 2 13.3V9.04h1v4.2c0 1.09.74 1.8 1.7 1.8.94 0 1.68-.73 1.68-1.8m2.76-4.2v2.46c.23-.21.51-.4.81-.53.3-.12.63-.19.96-.19 1.46 0 2.59 1.16 2.59 2.59s-1.13 2.59-2.59 2.59c-.33 0-.66-.07-.96-.19-.31-.13-.58-.32-.82-.55v.62h-.97v-6.8h.98m3.41 4.33c0-.96-.78-1.72-1.71-1.72-.95 0-1.71.76-1.71 1.72 0 .95.75 1.72 1.71 1.72.93 0 1.71-.77 1.71-1.72m3.91-2.58c1.44 0 2.49 1.1 2.49 2.57v.33h-4.04c.13.81.8 1.4 1.64 1.4.58 0 1.06-.23 1.45-.73l.7.53a2.62 2.62 0 01-2.15 1.06c-1.49 0-2.64-1.11-2.64-2.59 0-1.39 1.09-2.57 2.55-2.57m-1.54 2.12h3.03c-.16-.76-.77-1.26-1.51-1.26-.73 0-1.34.5-1.52 1.26m5.58.09v2.84h-1v-4.95h.97v.61c.24-.4.64-.65 1.19-.65H22v.91h-.41c-.64 0-1.09.5-1.09 1.24"/></svg>
